fs/mail_copy_20_filled.svg

<svg viewBox="0 0 20 20" fill="none" xmlns="http://www.w3.org/2000/svg" height="1em" width="1em">
  <path d="M3.99992 12.5V6.373L10.7464 9.93097C10.9029 10.023 11.097 10.023 11.2534 9.93097L18 6.373V12.5C18 13.8807 16.8806 15 15.4999 15H6.49992C5.11921 15 3.99992 13.8807 3.99992 12.5ZM4.0151 5.22293C4.15295 3.9726 5.21285 3 6.49992 3H15.4999C16.787 3 17.8469 3.9726 17.9847 5.22293L10.9999 8.91991L4.0151 5.22293ZM13.5 17C14.3179 17 15.0441 16.6072 15.5002 16H6.5C4.567 16 3 14.433 3 12.5V5.5C2.39278 5.9561 2 6.68209 2 7.5V12.5C2 14.9853 4.01472 17 6.5 17H13.5Z" fill="#212121"/>
</svg>

<svg viewBox="0 0 20 20" fill="none" xmlns="http://www.w3.org/2000/svg" height="1em" width="1em">
  <path d="M4 12.5V6.373l6.746 3.558a.5.5 0 0 0 .507 0L18 6.373V12.5a2.5 2.5 0 0 1-2.5 2.5h-9A2.5 2.5 0 0 1 4 12.5Zm.015-7.277A2.5 2.5 0 0 1 6.5 3h9a2.5 2.5 0 0 1 2.485 2.223L11 8.92 4.015 5.223ZM13.5 17c.818 0 1.544-.393 2-1h-9A3.5 3.5 0 0 1 3 12.5v-7c-.607.456-1 1.182-1 2v5A4.5 4.5 0 0 0 6.5 17h7Z" fill="#212121"/>
</svg>
